<?xml version="1.0" encoding="UTF-8"?>
<map version="1.10" tiledversion="1.12.2" orientation="orthogonal" renderorder="right-down" width="30" height="20" tilewidth="32" tileheight="32" infinite="0" nextlayerid="6" nextobjectid="161">
 <tileset firstgid="1" source="free_pixel_16_woods.tsx"/>
 <tileset firstgid="265" source="TX Tileset Grass.tsx"/>
 <tileset firstgid="329" source="Tanahbnyk2 (1).tsx"/>
 <tileset firstgid="449" source="houses.tsx"/>
 <layer id="1" name="Tile Layer 1" width="30" height="20">
  <data encoding="csv">
283,283,283,283,283,283,283,283,283,283,283,283,283,354,354,354,283,283,283,283,283,283,283,283,283,283,283,283,283,283,
283,283,283,283,283,283,283,283,283,283,283,283,283,364,354,354,283,277,283,277,283,283,283,283,283,283,277,277,283,283,
283,283,283,283,283,283,283,283,283,283,283,283,283,374,364,364,283,283,283,283,283,283,294,277,283,283,283,277,283,283,
283,283,283,283,283,279,283,283,283,283,283,283,283,384,374,374,283,283,277,283,277,283,283,283,283,283,283,283,283,283,
283,283,283,283,283,283,283,283,283,283,283,279,283,394,384,384,399,399,399,399,399,399,399,399,399,400,401,402,403,404,
283,283,297,298,283,283,283,274,298,298,283,283,283,404,394,394,399,400,399,399,399,400,401,402,403,404,401,402,403,404,
283,283,305,306,283,283,283,282,306,306,283,283,283,404,404,399,399,399,399,400,401,402,403,404,404,404,404,404,404,404,
279,283,297,298,298,298,298,297,298,298,298,297,298,404,404,354,283,283,283,283,283,283,283,283,283,277,283,283,283,283,
283,283,305,306,306,306,306,305,306,306,306,305,306,404,404,354,283,283,283,283,283,283,283,283,283,288,283,283,288,283,
283,283,283,283,283,283,283,283,283,283,283,283,283,404,404,354,283,283,283,283,283,283,283,283,283,283,277,283,283,283,
283,279,283,283,283,283,283,283,283,283,283,283,283,404,404,364,283,282,274,275,283,294,282,274,275,283,283,283,283,283,
283,283,283,283,283,283,294,283,283,283,277,277,283,404,354,374,283,282,426,425,283,283,282,426,425,283,294,283,283,283,
283,283,283,283,283,283,283,283,283,283,283,283,283,404,364,384,283,282,436,435,283,283,282,436,435,283,283,294,283,283,
283,279,283,283,283,283,283,283,277,283,283,283,283,404,374,394,399,399,400,401,402,403,404,403,364,283,283,283,283,271,
283,279,283,283,283,283,283,283,283,351,351,352,353,404,384,404,399,399,400,401,402,403,404,413,374,283,283,283,283,283,
283,283,283,283,283,283,283,283,283,351,352,353,353,404,394,364,283,283,283,283,283,283,283,283,283,294,283,283,271,283,
283,283,283,283,283,283,283,283,283,283,283,283,283,404,404,374,283,283,283,294,283,283,283,283,283,283,283,271,283,283,
283,283,283,283,283,283,283,283,279,283,283,283,283,394,404,384,283,283,283,283,283,283,283,294,283,283,283,283,283,283,
283,283,283,283,283,283,283,283,283,283,279,283,283,404,404,394,283,283,283,283,283,283,283,283,283,283,283,283,283,283,
283,283,283,283,283,283,283,283,283,283,283,279,283,404,404,404,283,283,283,283,283,283,283,283,283,283,283,283,283,283
</data>
 </layer>
 <objectgroup id="5" name="Object Layer 1">
  <object id="10" gid="450" x="51" y="528" width="217.2" height="181"/>
  <object id="11" gid="456" x="544" y="359" width="125.464" height="139"/>
  <object id="12" gid="456" x="544" y="359" width="125.464" height="139"/>
  <object id="14" gid="456" x="704" y="358" width="125.464" height="139"/>
  <object id="15" gid="455" x="7" y="189" width="182.429" height="159.625"/>
  <object id="16" gid="455" x="199" y="187.5" width="182.429" height="159.625"/>
  <object id="17" gid="458" x="351" y="223" width="72.6667" height="109"/>
  <object id="23" gid="458" x="523" y="129" width="72.6667" height="109"/>
  <object id="33" gid="458" x="743.667" y="128.333" width="72.6667" height="109"/>
  <object id="29" gid="458" x="636" y="128" width="72.6667" height="109"/>
  <object id="34" gid="458" x="856.667" y="127.333" width="72.6667" height="109"/>
  <object id="24" gid="458" x="556.667" y="92.3333" width="72.6667" height="109"/>
  <object id="36" gid="458" x="777.333" y="91.6667" width="72.6667" height="109"/>
  <object id="30" gid="458" x="669.667" y="91.3333" width="72.6667" height="109"/>
  <object id="38" gid="458" x="890.333" y="90.6667" width="72.6667" height="109"/>
  <object id="26" gid="458" x="574" y="129" width="72.6667" height="109"/>
  <object id="32" gid="458" x="794.667" y="128.333" width="72.6667" height="109"/>
  <object id="28" gid="458" x="687" y="128" width="72.6667" height="109"/>
  <object id="35" gid="458" x="907.667" y="127.333" width="72.6667" height="109"/>
  <object id="25" gid="458" x="498" y="92" width="72.6667" height="109"/>
  <object id="37" gid="458" x="718.667" y="91.3333" width="72.6667" height="109"/>
  <object id="31" gid="458" x="611" y="91" width="72.6667" height="109"/>
  <object id="39" gid="458" x="831.667" y="90.3333" width="72.6667" height="109"/>
  <object id="19" gid="458" x="-20" y="230" width="72.6667" height="109"/>
  <object id="18" gid="457" x="147" y="214" width="98" height="98"/>
  <object id="43" gid="457" x="330" y="351" width="98" height="98"/>
  <object id="44" gid="457" x="491" y="272" width="98" height="98"/>
  <object id="20" gid="452" x="193.25" y="532" width="46.75" height="46.75"/>
  <object id="22" gid="452" x="78.25" y="532" width="46.75" height="46.75"/>
  <object id="40" gid="454" x="257" y="543.5" width="30.5" height="30.5"/>
  <object id="41" gid="454" x="512.5" y="414.5" width="30.5" height="30.5"/>
  <object id="160" gid="451" x="529.333" y="610.333" width="120" height="140"/>
 </objectgroup>
</map>
