<?xml version="1.0" encoding="UTF-8"?>
<map version="1.10" tiledversion="1.12.2" orientation="orthogonal" renderorder="right-down" width="32" height="18" tilewidth="32" tileheight="32" infinite="0" nextlayerid="3" nextobjectid="1">
 <tileset firstgid="1" source="TX Tileset Grass.tsx"/>
 <tileset firstgid="65" source="Tanahbnyk2 (1).tsx"/>
 <layer id="1" name="Tile Layer 1" width="32" height="18">
  <data encoding="csv">
11,11,11,11,11,11,11,11,11,11,11,11,11,11,90,90,90,90,11,11,11,11,11,11,11,11,11,11,11,11,11,11,
11,11,11,11,5,11,11,11,11,11,11,11,5,11,100,90,90,90,11,11,32,11,11,11,11,11,11,11,11,11,11,11,
11,11,11,11,11,11,11,11,11,11,11,11,11,11,110,90,90,90,11,11,11,11,11,11,11,11,11,30,11,11,11,11,
11,11,11,11,11,11,11,11,11,11,11,11,11,11,120,90,90,90,11,11,11,11,11,11,11,11,11,11,11,11,11,11,
11,30,11,35,36,10,11,35,36,11,11,11,11,11,120,90,90,90,85,85,85,85,85,85,85,85,85,86,87,88,89,90,
11,10,11,35,36,14,11,35,36,11,11,30,11,11,90,90,90,90,85,85,85,85,86,87,88,89,90,86,87,88,89,90,
11,18,19,43,62,37,38,61,62,39,40,38,39,40,90,100,90,90,85,86,87,88,89,90,90,90,90,90,90,90,90,90,
11,11,10,54,47,45,46,47,48,47,48,46,47,48,90,110,90,100,11,11,11,11,11,11,11,11,11,11,11,11,11,11,
11,14,18,19,11,5,11,11,11,11,11,11,11,11,90,120,90,110,11,11,30,11,11,11,11,11,11,11,11,11,11,11,
11,11,11,11,11,11,11,11,11,11,11,11,11,11,90,90,90,120,11,11,11,11,14,11,11,11,32,11,11,11,11,11,
11,11,11,11,11,11,11,11,11,32,11,11,11,11,90,100,90,120,11,11,11,11,11,11,11,11,11,11,11,11,30,11,
11,30,11,11,11,11,11,11,11,11,11,11,11,11,90,110,90,120,11,11,11,151,152,11,32,11,151,152,11,11,11,11,
11,11,11,11,11,11,11,11,11,11,11,11,11,5,90,120,90,110,11,11,11,161,162,11,11,11,161,162,11,11,11,11,
11,11,11,11,11,11,11,11,11,11,85,86,87,88,89,90,100,120,151,151,151,151,151,151,151,151,161,162,11,11,11,11,
11,11,11,11,30,11,11,11,11,11,85,86,87,88,89,90,110,120,161,161,161,161,161,161,161,161,161,162,11,11,11,11,
11,11,11,11,11,11,11,11,11,11,85,86,87,88,89,90,120,120,11,11,11,11,11,11,11,11,11,11,11,11,11,11,
11,11,11,11,11,11,11,11,32,11,11,11,11,11,110,110,110,120,11,11,11,11,11,32,11,11,11,11,11,11,11,11,
11,11,11,11,11,11,11,11,11,11,11,11,11,11,120,120,120,120,11,11,11,11,11,11,11,11,11,11,11,11,11,11
</data>
 </layer>
 <layer id="2" name="Tile Layer 2" width="32" height="18">
  <data encoding="csv">
0,0,0,0,0,0,0,0,0,0,0,0,0,0,0,0,0,0,0,0,0,0,0,0,0,0,0,0,0,0,0,0,
0,0,0,0,0,0,0,0,0,0,0,0,0,0,0,0,0,0,0,0,0,0,0,0,0,0,0,0,0,0,0,0,
0,0,0,0,0,0,0,0,0,0,0,0,0,0,0,0,0,0,0,0,0,0,0,0,0,0,0,0,0,0,0,0,
0,0,0,0,0,0,0,0,0,0,0,0,0,0,0,0,0,0,0,0,0,0,0,0,0,0,0,0,0,0,0,0,
0,0,0,0,0,0,0,0,0,0,0,0,0,0,0,0,0,0,0,0,0,0,0,0,0,0,0,0,0,0,0,0,
0,0,0,0,0,0,0,0,0,0,0,0,0,0,0,0,0,0,0,0,0,0,0,0,0,0,0,0,0,0,0,0,
0,0,0,0,0,0,0,0,0,0,0,0,0,0,0,0,0,0,0,0,0,0,0,0,0,0,0,0,0,0,0,0,
0,0,0,0,0,0,0,0,0,0,0,0,0,0,0,0,0,0,0,0,0,0,0,0,0,0,0,0,0,0,0,0,
0,0,0,0,0,0,0,0,0,0,0,0,0,0,0,0,0,0,0,0,0,0,0,0,0,0,0,0,0,0,0,0,
0,0,0,0,0,0,0,0,0,0,0,0,0,0,0,0,0,0,0,0,0,0,0,0,0,0,0,0,0,0,0,0,
0,0,0,0,0,0,0,0,0,0,0,0,0,0,0,0,0,0,0,0,0,0,0,0,0,0,0,0,0,0,0,0,
0,0,0,0,0,0,0,0,0,0,0,0,0,0,0,0,0,0,0,0,0,0,0,0,0,0,0,0,0,0,0,0,
0,0,0,0,0,0,0,0,0,0,0,0,0,0,0,0,0,0,0,0,0,0,0,0,0,0,0,0,0,0,0,0,
0,0,0,0,0,0,0,0,0,0,0,0,0,0,0,0,0,0,0,0,0,0,0,0,0,0,0,0,0,0,0,0,
0,0,0,0,0,0,0,0,0,0,0,0,0,0,0,0,0,0,0,0,0,0,0,0,0,0,0,0,0,0,0,0,
0,0,0,0,0,0,0,0,0,0,0,0,0,0,0,0,0,0,0,0,0,0,0,0,0,0,0,0,0,0,0,0,
0,0,0,0,0,0,0,0,0,0,0,0,0,0,0,0,0,0,0,0,0,0,0,0,0,0,0,0,0,0,0,0,
0,0,0,0,0,0,0,0,0,0,0,0,0,0,0,0,0,0,0,0,0,0,0,0,0,0,0,0,0,0,0,0
</data>
 </layer>
</map>
