<?xml version="1.0" encoding="UTF-8"?>
<map version="1.10" tiledversion="1.12.2" orientation="orthogonal" renderorder="right-down" width="32" height="18" tilewidth="32" tileheight="32" infinite="0" nextlayerid="3" nextobjectid="1">
 <tileset firstgid="1" source="TX Tileset Grass.tsx"/>
 <tileset firstgid="65" source="Tanahbnyk2 (1).tsx"/>
 <tileset firstgid="185" source="kayu patah.tsx"/>
 <layer id="1" name="Tile Layer 1" width="32" height="18">
  <data encoding="csv">
10,10,10,10,10,10,10,10,10,10,10,10,10,10,9,10,11,12,10,10,10,10,10,10,10,10,10,10,10,10,10,10,
10,10,10,10,10,10,10,10,10,10,10,10,10,10,9,10,11,12,10,10,10,10,10,10,10,10,10,10,10,10,10,10,
10,10,10,10,10,10,10,10,10,10,10,10,10,10,17,18,19,20,10,10,10,10,10,10,10,10,10,10,10,10,10,10,
10,10,10,10,10,10,10,10,10,10,10,10,10,10,120,120,120,9,9,85,86,87,85,85,86,87,88,89,90,10,10,10,
10,10,10,10,10,10,10,10,10,10,10,10,10,10,130,130,130,85,86,87,85,86,87,85,86,87,88,89,90,10,10,10,
10,10,10,10,10,10,10,10,10,10,10,10,10,10,90,90,90,85,86,87,88,85,86,85,86,87,88,89,90,10,10,10,
10,10,10,10,10,10,10,10,10,10,10,10,10,10,90,90,90,85,86,87,88,85,86,85,86,87,88,89,90,10,10,10,
10,10,10,10,10,10,10,10,10,10,10,10,10,10,90,90,90,90,10,10,85,86,87,88,89,90,10,10,10,10,10,10,
10,10,10,10,10,10,10,10,10,10,10,10,10,10,100,90,90,90,10,10,10,10,10,10,10,10,10,10,10,10,10,10,
10,10,10,10,10,10,10,10,10,10,10,10,10,10,110,90,90,90,10,10,10,10,10,10,10,10,10,10,10,10,10,10,
10,10,10,10,10,10,10,10,10,10,10,10,10,10,90,100,90,90,10,10,10,10,90,90,90,90,90,90,90,90,90,10,
10,10,10,10,10,10,10,10,10,10,10,10,10,10,90,110,90,90,10,10,10,10,100,100,100,100,100,100,90,100,90,10,
10,10,10,10,10,10,10,10,10,10,10,10,10,10,90,120,90,100,151,151,151,152,110,110,110,110,110,110,90,110,90,10,
10,10,10,10,10,10,10,10,10,10,10,10,10,10,90,130,100,110,161,161,161,162,90,90,90,90,90,90,90,90,90,10,
10,10,10,10,10,10,10,10,10,10,10,10,10,10,100,140,110,120,10,10,10,10,100,100,100,100,100,100,100,100,100,10,
10,10,10,10,10,10,10,10,10,10,10,10,10,10,110,140,120,130,10,10,10,10,110,110,110,110,110,110,110,110,110,10,
10,10,10,10,10,10,10,10,10,10,10,10,10,10,120,140,130,140,10,10,10,10,10,10,10,10,10,10,10,10,10,10,
10,10,10,10,10,10,10,10,10,10,10,10,10,10,130,140,140,140,10,10,10,10,10,10,10,10,10,10,10,10,10,10
</data>
 </layer>
 <layer id="2" name="Tile Layer 2" width="32" height="18">
  <data encoding="csv">
0,0,0,0,0,0,0,0,0,0,0,0,0,0,0,0,0,0,0,0,0,0,0,0,0,0,0,0,0,0,0,0,
0,0,0,0,0,0,0,0,0,0,0,0,0,0,0,0,0,0,0,0,0,0,0,0,0,0,0,0,0,0,0,0,
0,0,0,0,0,0,0,0,0,0,0,0,0,0,0,0,0,0,0,0,0,0,0,0,0,0,0,0,0,0,0,0,
0,0,0,0,0,0,0,0,0,0,0,0,0,0,0,0,0,0,0,0,0,0,0,0,0,0,0,0,0,0,0,0,
0,0,0,0,0,0,0,0,0,0,0,0,0,0,0,0,0,0,0,0,0,0,0,0,0,0,0,0,0,0,0,0,
0,0,0,0,0,0,0,0,0,0,0,0,0,0,0,0,0,0,0,0,0,0,0,0,0,0,0,0,0,0,0,0,
0,0,0,0,0,0,0,0,0,0,0,0,0,0,0,0,0,0,0,0,0,0,0,0,0,0,0,0,0,0,0,0,
0,0,0,0,0,0,0,0,0,0,0,0,0,0,0,0,0,0,0,0,0,0,0,0,0,0,0,0,0,0,0,0,
0,0,0,0,0,0,0,0,0,0,0,0,0,0,0,0,0,0,0,0,0,0,0,0,0,0,0,0,0,0,0,0,
0,0,0,0,0,0,0,0,0,0,0,0,0,0,0,0,0,0,0,0,0,0,0,0,0,0,0,0,0,0,0,0,
0,0,0,0,0,0,0,0,0,0,0,0,0,0,0,0,0,0,0,0,0,0,0,0,0,0,0,0,0,0,0,0,
0,0,0,0,0,0,0,0,0,0,0,0,0,0,0,0,0,0,0,0,0,0,0,0,0,0,0,0,0,0,0,0,
0,0,0,0,0,0,0,0,0,0,0,0,0,0,0,0,0,0,0,0,0,0,0,0,0,0,0,0,0,0,0,0,
0,0,0,0,0,0,0,0,0,0,0,0,0,0,0,0,0,0,0,0,0,0,0,0,0,0,0,0,0,0,0,0,
0,0,0,0,0,0,0,0,0,0,0,0,0,0,0,0,0,0,185,186,0,0,0,0,0,0,0,0,0,0,0,0,
0,0,0,0,0,0,0,0,0,0,0,0,0,0,0,0,0,0,187,188,0,0,0,0,0,0,0,0,0,0,0,0,
0,0,0,0,0,0,0,0,0,0,0,0,0,0,0,0,0,0,0,0,0,0,0,0,0,0,0,0,0,0,0,0,
0,0,0,0,0,0,0,0,0,0,0,0,0,0,0,0,0,0,0,0,0,0,0,0,0,0,0,0,0,0,0,0
</data>
 </layer>
</map>
